X: 9
T: Humours Of Kinvara, The
C: Pat Kelly
Z: Erik-Fiddler
S: https://thesession.org/tunes/294#setting48591
R: reel
M: 4/4
L: 1/8
K: Edor
dcd|:BE E/E/E BEdE|BE E/E/E BcdB|cA A/A/A [EA]AcA|1 B/c/d ef ecdc:|2 B/c/d ef eAce||
|:f/f/f fe dcBA|f/f/f fe [D3d3] e|f2 fe f^gaf|1 ecAc eAce:|2 ecAc ecdc||

